X:1
T:Title
%%score { ( 1 4 ) | ( 2 3 ) }
L:1/8
Q:1/4=100
M:4/4
K:Bb
V:1 treble nm="Grand Piano"
V:4 treble 
V:2 bass 
V:3 bass 
V:1
 [DF]2 [Fd]2 cBdc | [DB]4 [DF]4 | G^FGA [=FB]2 [=Ed]2 | [Fc]6 z2 | [DF]2 [Fd]2 cBdc | [DB]4 [DF]4 | %6
w: John~R.~Sweney * * * * *||||||
 [EG][GB][FA]G F2 c2 | [DB]6 z2 | c3 F AGFE | D3 F [DB]4 | B>B BB c2 Bc | [^Fd]6 z2 | %12
w: ||||||
 [Fd]2 [Fd]2 [Ff][Fd][Fc][FB] | [FA]4 [EG]4 | [DF][DF][FB]c d2 c2 |[M:3/4] [DB]6 |[M:1/4] Fd | %17
w: |||||
[M:4/4] c6 z2 | B6 z2 | G2 G>A B2 A>G |[M:9/8] d6- d z z |[M:4/4] dccF c2 cd | %22
w: |||||
 [Ec][DB][DB][B,D] [DF]2 [DF][DF] | [EG][GB][GB][^Fc] d2 c>c | [DB]6 z2 |] %25
w: |||
V:2
 [B,,B,]2 [B,,B,]2 [F,A,E][F,B,D][F,F][F,E] | [B,,F,]4 [B,,B,]4 | %2
 [E,B,E][E,A,E][E,B,E][E,CE] [D,B,]2 [C,B,]2 | [F,A,]6 z2 | %4
 [B,,B,]2 [B,,B,]2 [F,A,E][F,B,D][F,F][F,E] | [B,,F,]4 [B,,B,]4 | %6
 [E,B,][E,B,][E,B,][E,B,E] [F,B,D]2 [F,A,E]2 | [B,,B,]6 z2 | %8
 [E,A,E]3 [F,A,E] [F,CE][F,CE][F,B,D][F,A,C] | B,3 D [B,,F,]4 | %10
 [G,D]>[G,D] [G,D][G,D] [E,G,E]2 [E,G,]2 | [D,A,]6 z2 | %12
 [B,,B,]2 [B,,B,]2 [B,,D][B,,B,][C,A,][D,B,] | [E,B,]4 [E,B,]4 | %14
 [B,,B,][B,,B,][D,B,][K:treble][F,A,F] [B,F]2[K:bass] [F,A,E]2 |[M:3/4] [B,,B,]6 |[M:1/4] z2 | %17
[M:4/4] z2 [F,A,][F,A,] [F,A,]2 z2 | z2 [B,,F,][B,,F,] [B,,F,]2 B,A, | G,2 G,>A, B,2 A,>G, | %20
[M:9/8] [D,A,]2 [G,B,]- [G,B,]/[G,B,]/ [D,A,]2- [D,A,][B,,B,][B,,B,] | %21
[M:4/4] [F,B,F][F,A,E][F,A,E][F,A,E] [F,A,E]2 [F,A,E][F,F] | %22
 [B,,F,][B,,F,][B,,F,][B,,F,] [B,,B,]2 [B,,B,][B,,B,] | %23
 [E,B,]2 [E,B,][E,B,] [F,B,F]2 [F,A,E]>[F,A,E] | [B,,B,]6 z2 |] %25
V:3
 x8 | x8 | x8 | x8 | x8 | x8 | x8 | x8 | x8 | [B,,F,]4 z4 | x8 | x8 | x8 | x8 | %14
 x3[K:treble] x3[K:bass] x2 |[M:3/4] x6 |[M:1/4] x2 |[M:4/4] x8 | x8 | x8 |[M:9/8] x9 |[M:4/4] x8 | %22
 x8 | x8 | x8 |] %25
V:4
 x8 | x8 | x8 | x8 | x8 | x8 | x8 | x8 | x8 | x8 | z4 z2 G2 | x8 | x8 | x8 | x8 |[M:3/4] x6 | %16
[M:1/4] x2 |[M:4/4] z2 EE E2 Fc | z2 DD D2 BA | x8 |[M:9/8] ^F2 G- G/G/ F2- F[=Fd][Ge] | %21
[M:4/4] x8 | x8 | x8 | x8 |] %25

